media/theme/theme-1/rundown_fitur.svg

<svg width="80" height="82" viewBox="0 0 80 82" fill="none" xmlns="http://www.w3.org/2000/svg">
<rect width="80" height="82" fill="none"/>
<g id="iPhone 8 Plus - 1">
<rect width="414" height="736" transform="translate(-188 -155)" fill="none"/>
<g id="ring_2">
<g id="Ellipse 3">
<mask id="path-1-inside-1_0_1" fill="white">
<path d="M44.395 43.582C48.0119 35.3708 47.8908 23.4898 45.5079 17.1238C43.125 10.7578 37.7175 6.4797 32.9876 5.26323C28.536 4.95912 22.9108 5.01621 17.9633 8.91262C13.0159 12.809 8.98396 18.0675 6.84804 25.4262C4.71212 32.7848 4.33016 40.8449 5.44308 47.5355C7.11244 54.2261 10.4512 58.1796 16.0157 61.2207C20.7456 63.0455 26.5884 62.1331 29.6489 60.9166C30.3729 60.6288 29.9271 60.9166 30.7618 60.3084L30.2054 59.7001C29.9271 60.3084 27.1449 61.2207 26.3102 61.2207C25.1004 61.2207 21.8585 61.1995 19.3545 58.4837C16.7718 55.4425 14.9028 49.6643 14.3464 46.6231C13.5117 38.7161 15.1142 33.2032 16.214 29.414C17.3139 25.6249 20.4273 20.4691 22.415 17.732C26.5527 12.0344 30.7618 9.82499 36.0481 9.52087C41.5137 9.52087 44.2809 16.2787 45.5079 19.5567C50.2378 40.2367 38.274 51.1849 38.8304 52.0972L39.6651 52.7055L44.395 43.582Z"/>
</mask>
<path d="M44.395 43.582C48.0119 35.3708 47.8908 23.4898 45.5079 17.1238C43.125 10.7578 37.7175 6.4797 32.9876 5.26323C28.536 4.95912 22.9108 5.01621 17.9633 8.91262C13.0159 12.809 8.98396 18.0675 6.84804 25.4262C4.71212 32.7848 4.33016 40.8449 5.44308 47.5355C7.11244 54.2261 10.4512 58.1796 16.0157 61.2207C20.7456 63.0455 26.5884 62.1331 29.6489 60.9166C30.3729 60.6288 29.9271 60.9166 30.7618 60.3084L30.2054 59.7001C29.9271 60.3084 27.1449 61.2207 26.3102 61.2207C25.1004 61.2207 21.8585 61.1995 19.3545 58.4837C16.7718 55.4425 14.9028 49.6643 14.3464 46.6231C13.5117 38.7161 15.1142 33.2032 16.214 29.414C17.3139 25.6249 20.4273 20.4691 22.415 17.732C26.5527 12.0344 30.7618 9.82499 36.0481 9.52087C41.5137 9.52087 44.2809 16.2787 45.5079 19.5567C50.2378 40.2367 38.274 51.1849 38.8304 52.0972L39.6651 52.7055L44.395 43.582Z" stroke="black" stroke-width="2" mask="url(#path-1-inside-1_0_1)"/>
</g>
<g id="Ellipse 4">
<mask id="path-2-inside-2_0_1" fill="white">
<path d="M37.7175 18.0362C33.5441 18.0362 28.243 22.3637 25.4755 27.1596C22.725 33.242 22.5971 39.0433 24.0844 45.7108C25.5716 52.3782 29.5241 58.5483 34.5002 63.6537C39.1087 68.3819 41.7732 70.1681 48.5684 71.5607C53.0201 72.4731 58.8628 71.5607 64.7056 66.9887C68.4948 63.241 70.1775 57.214 69.9022 50.7343C69.6269 44.2546 67.1508 37.4163 62.9528 31.5414C58.7547 25.6665 51.9071 20.4691 45.7861 18.6444L46.899 28.6802C51.0725 30.8091 55.8556 36.7701 59.4193 41.7572C61.3669 45.1025 62.0346 46.319 62.9528 49.9684C63.871 53.6178 64.8447 58.1796 62.9528 63.0454C62.4798 64.2619 60.2564 64.4298 55.2459 63.6537C50.2353 62.8776 45.8369 60.0806 41.6127 55.7466C37.3885 51.4127 34.5002 46.9272 32.4312 41.7573C31.3358 39.0202 29.217 32.0255 30.7618 27.1596C32.3067 22.2938 37.1611 19.5567 37.7175 18.0362Z"/>
</mask>
<path d="M37.7175 18.0362C33.5441 18.0362 28.243 22.3637 25.4755 27.1596C22.725 33.242 22.5971 39.0433 24.0844 45.7108C25.5716 52.3782 29.5241 58.5483 34.5002 63.6537C39.1087 68.3819 41.7732 70.1681 48.5684 71.5607C53.0201 72.4731 58.8628 71.5607 64.7056 66.9887C68.4948 63.241 70.1775 57.214 69.9022 50.7343C69.6269 44.2546 67.1508 37.4163 62.9528 31.5414C58.7547 25.6665 51.9071 20.4691 45.7861 18.6444L46.899 28.6802C51.0725 30.8091 55.8556 36.7701 59.4193 41.7572C61.3669 45.1025 62.0346 46.319 62.9528 49.9684C63.871 53.6178 64.8447 58.1796 62.9528 63.0454C62.4798 64.2619 60.2564 64.4298 55.2459 63.6537C50.2353 62.8776 45.8369 60.0806 41.6127 55.7466C37.3885 51.4127 34.5002 46.9272 32.4312 41.7573C31.3358 39.0202 29.217 32.0255 30.7618 27.1596C32.3067 22.2938 37.1611 19.5567 37.7175 18.0362Z" stroke="black" stroke-width="2" mask="url(#path-2-inside-2_0_1)"/>
</g>
<path id="Line 1" d="M33.5441 9.52087L35.4917 12.562L36.6046 14.6909L38.2461 19.2526L39.1086 23.2061L39.3591 27.1597L39.1086 30.2008L38.8304 32.9379L38.274 35.6749L37.4393 38.1079L36.6046 40.5408L35.7699 42.6696L33.8223 46.0149" stroke="black"/>
<path id="Line 2" d="M18.798 58.1796L20.1892 58.1796L21.3021 58.1796L22.6932 57.8754L23.8061 57.2672L25.1973 56.3549L26.0319 55.7466L26.8666 54.8343L27.4231 53.6178" stroke="black"/>
<path id="Line 3" d="M31.0401 25.6391L32.9877 25.335L35.2135 25.0309H36.6046H37.9958L39.1087 25.335" stroke="black"/>
<path id="Line 4" d="M62.4798 63.9578L63.8709 63.6537L65.2621 63.0454L66.375 62.4372L68.0444 61.2207" stroke="black"/>
</g>
</g>
</svg>

<svg fill="none" height="82" width="80" xmlns="http://www.w3.org/2000/svg"><mask id="a" fill="#fff"><path d="M44.395 43.582c3.617-8.211 3.496-20.092 1.113-26.458s-7.79-10.644-12.52-11.86c-4.452-.305-10.077-.248-15.025 3.649-4.947 3.896-8.979 9.155-11.115 16.513-2.136 7.359-2.518 15.419-1.405 22.11 1.67 6.69 5.008 10.644 10.573 13.685 4.73 1.825 10.572.912 13.633-.304.724-.288.278 0 1.113-.609l-.557-.608c-.278.608-3.06 1.52-3.895 1.52-1.21 0-4.451-.02-6.955-2.736-2.583-3.041-4.452-8.82-5.009-11.86-.834-7.908.768-13.42 1.868-17.21 1.1-3.79 4.213-8.945 6.201-11.682 4.138-5.698 8.347-7.907 13.633-8.211 5.466 0 8.233 6.758 9.46 10.036 4.73 20.68-7.234 31.628-6.678 32.54l.835.609z"/></mask><mask id="b" fill="#fff"><path d="M37.718 18.036c-4.174 0-9.475 4.328-12.243 9.124-2.75 6.082-2.878 11.883-1.39 18.55 1.487 6.668 5.44 12.838 10.415 17.944 4.609 4.728 7.273 6.514 14.068 7.907 4.452.912 10.295 0 16.138-4.572 3.789-3.748 5.472-9.775 5.196-16.255s-2.751-13.318-6.95-19.193c-4.197-5.874-11.045-11.072-17.166-12.897L46.9 28.68c4.174 2.13 8.957 8.09 12.52 13.077 1.948 3.346 2.616 4.562 3.534 8.211s1.892 8.212 0 13.077c-.473 1.217-2.697 1.385-7.707.609s-9.41-3.573-13.633-7.907c-4.224-4.334-7.113-8.82-9.182-13.99-1.095-2.737-3.214-9.731-1.67-14.597 1.546-4.866 6.4-7.603 6.957-9.124z"/></mask><path d="M0 0h80v82H0z"/><path d="M-188-155h414v736h-414z"/><g stroke="#000"><path d="M44.395 43.582c3.617-8.211 3.496-20.092 1.113-26.458s-7.79-10.644-12.52-11.86c-4.452-.305-10.077-.248-15.025 3.649-4.947 3.896-8.979 9.155-11.115 16.513-2.136 7.359-2.518 15.419-1.405 22.11 1.67 6.69 5.008 10.644 10.573 13.685 4.73 1.825 10.572.912 13.633-.304.724-.288.278 0 1.113-.609l-.557-.608c-.278.608-3.06 1.52-3.895 1.52-1.21 0-4.451-.02-6.955-2.736-2.583-3.041-4.452-8.82-5.009-11.86-.834-7.908.768-13.42 1.868-17.21 1.1-3.79 4.213-8.945 6.201-11.682 4.138-5.698 8.347-7.907 13.633-8.211 5.466 0 8.233 6.758 9.46 10.036 4.73 20.68-7.234 31.628-6.678 32.54l.835.609z" mask="url(#a)" stroke-width="2"/><path d="M37.718 18.036c-4.174 0-9.475 4.328-12.243 9.124-2.75 6.082-2.878 11.883-1.39 18.55 1.487 6.668 5.44 12.838 10.415 17.944 4.609 4.728 7.273 6.514 14.068 7.907 4.452.912 10.295 0 16.138-4.572 3.789-3.748 5.472-9.775 5.196-16.255s-2.751-13.318-6.95-19.193c-4.197-5.874-11.045-11.072-17.166-12.897L46.9 28.68c4.174 2.13 8.957 8.09 12.52 13.077 1.948 3.346 2.616 4.562 3.534 8.211s1.892 8.212 0 13.077c-.473 1.217-2.697 1.385-7.707.609s-9.41-3.573-13.633-7.907c-4.224-4.334-7.113-8.82-9.182-13.99-1.095-2.737-3.214-9.731-1.67-14.597 1.546-4.866 6.4-7.603 6.957-9.124z" mask="url(#b)" stroke-width="2"/><path d="m33.544 9.52 1.948 3.042 1.113 2.129 1.641 4.562.863 3.953.25 3.954-.25 3.04-.279 2.738-.556 2.737-.835 2.433-.834 2.433-.835 2.129-1.948 3.345M18.798 58.18h2.504l1.391-.305 1.113-.608 1.391-.912.835-.608.835-.913.556-1.216"/><path d="m31.04 25.64 1.948-.305 2.225-.304h2.782l1.114.304M62.48 63.958l1.39-.304 1.392-.609 1.113-.608 1.67-1.216"/></g></svg>
